2 Export/Icons/Rounded/Bug.svg

<svg xmlns="http://www.w3.org/2000/svg" xmlns:xlink="http://www.w3.org/1999/xlink" width="24" height="24" viewBox="0 0 24 24">
  <defs>
    <path id="bug-a" d="M19,7.5925 L17.19,7.5925 C16.74,6.8125 16.12,6.1425 15.37,5.6325 L16.3,4.7025 C16.69,4.3125 16.69,3.6825 16.3,3.2925 C15.91,2.9025 15.28,2.9025 14.89,3.2925 L13.42,4.7625 C12.96,4.6525 12.49,4.5925 12,4.5925 C11.51,4.5925 11.04,4.6525 10.59,4.7625 L9.11,3.2925 C8.72,2.9025 8.09,2.9025 7.7,3.2925 C7.31,3.6825 7.31,4.3125 7.7,4.7025 L8.62,5.6325 C7.88,6.1425 7.26,6.8125 6.81,7.5925 L5,7.5925 C4.45,7.5925 4,8.0425 4,8.5925 C4,9.1425 4.45,9.5925 5,9.5925 L6.09,9.5925 C6.04,9.9225 6,10.2525 6,10.5925 L6,11.5925 L5,11.5925 C4.45,11.5925 4,12.0425 4,12.5925 C4,13.1425 4.45,13.5925 5,13.5925 L6,13.5925 L6,14.5925 C6,14.9325 6.04,15.2625 6.09,15.5925 L5,15.5925 C4.45,15.5925 4,16.0425 4,16.5925 C4,17.1425 4.45,17.5925 5,17.5925 L6.81,17.5925 C7.85,19.3825 9.78,20.5925 12,20.5925 C14.22,20.5925 16.15,19.3825 17.19,17.5925 L19,17.5925 C19.55,17.5925 20,17.1425 20,16.5925 C20,16.0425 19.55,15.5925 19,15.5925 L17.91,15.5925 C17.96,15.2625 18,14.9325 18,14.5925 L18,13.5925 L19,13.5925 C19.55,13.5925 20,13.1425 20,12.5925 C20,12.0425 19.55,11.5925 19,11.5925 L18,11.5925 L18,10.5925 C18,10.2525 17.96,9.9225 17.91,9.5925 L19,9.5925 C19.55,9.5925 20,9.1425 20,8.5925 C20,8.0425 19.55,7.5925 19,7.5925 Z M13,15.5925 L11,15.5925 C10.45,15.5925 10,15.1425 10,14.5925 C10,14.0425 10.45,13.5925 11,13.5925 L13,13.5925 C13.55,13.5925 14,14.0425 14,14.5925 C14,15.1425 13.55,15.5925 13,15.5925 Z M13,11.5925 L11,11.5925 C10.45,11.5925 10,11.1425 10,10.5925 C10,10.0425 10.45,9.5925 11,9.5925 L13,9.5925 C13.55,9.5925 14,10.0425 14,10.5925 C14,11.1425 13.55,11.5925 13,11.5925 Z"/>
  </defs>
  <g fill="none" fill-rule="evenodd">
    <polygon points="0 0 24 0 24 24 0 24"/>
    <mask id="bug-b" fill="#fff">
      <use xlink:href="#bug-a"/>
    </mask>
    <use fill="#000" xlink:href="#bug-a"/>
    <g fill="#000" mask="url(#bug-b)">
      <rect width="24" height="24"/>
    </g>
  </g>
</svg>

<svg xmlns="http://www.w3.org/2000/svg" xmlns:xlink="http://www.w3.org/1999/xlink" width="24" height="24" viewBox="0 0 24 24">
  <defs>
    <path id="bug-a" d="M19 7.593h-1.81a5.985 5.985 0 0 0-1.82-1.96l.93-.93a.996.996 0 1 0-1.41-1.41l-1.47 1.47c-.46-.11-.93-.17-1.42-.17-.49 0-.96.06-1.41.17l-1.48-1.47a.996.996 0 1 0-1.41 1.41l.92.93c-.74.51-1.36 1.18-1.81 1.96H5c-.55 0-1 .45-1 1s.45 1 1 1h1.09c-.05.33-.09.66-.09 1v1H5c-.55 0-1 .45-1 1s.45 1 1 1h1v1c0 .34.04.67.09 1H5c-.55 0-1 .45-1 1s.45 1 1 1h1.81c1.04 1.79 2.97 3 5.19 3s4.15-1.21 5.19-3H19c.55 0 1-.45 1-1s-.45-1-1-1h-1.09c.05-.33.09-.66.09-1v-1h1c.55 0 1-.45 1-1s-.45-1-1-1h-1v-1c0-.34-.04-.67-.09-1H19c.55 0 1-.45 1-1s-.45-1-1-1zm-6 8h-2c-.55 0-1-.45-1-1s.45-1 1-1h2c.55 0 1 .45 1 1s-.45 1-1 1zm0-4h-2c-.55 0-1-.45-1-1s.45-1 1-1h2c.55 0 1 .45 1 1s-.45 1-1 1z"/>
  </defs>
  <g fill="none" fill-rule="evenodd">
    <polygon points="0 0 24 0 24 24 0 24"/>
    <mask id="bug-b" fill="#fff">
      <use xlink:href="#bug-a"/>
    </mask>
    <use fill="#000" xlink:href="#bug-a"/>
    <g fill="#000" mask="url(#bug-b)">
      <rect width="24" height="24"/>
    </g>
  </g>
</svg>
